!!!COM:	Anonymous
!!!OTL:	Puis quaultrement / Marchez la dureau
!!!AGN:	Song; Chanson
!!!SCT:	Ano3029
!!!SCA:	Ano3029
!!!SMS:	Dijon Chansonnier
!!!folio:	
!!!voices:	4
**kern	**kern	**kern	**kern
*staff4	*staff3	*staff2	*staff1
*Ivox	*Ivox	*Ivox	*Ivox
*I"Contratenor	*I"Tenor2	*I"Tenor1	*I"Superius
*I'Ct	*I'T2	*I'T1	*I'S
*clefF4	*clefF4	*clefF4	*clefG2
*k[b-]	*k[]	*k[]	*k[]
*M2/1	*M2/1	*M2/1	*M2/1
*met(C|)	*met(C|)	*met(C|)	*met(C|)
=1-	=1-	=1-	=1-
!	!	!LO:TX:Y=24:t=Marchez l&agrave; dureau	!
1.F	0r	1F	0r
.	.	1D	.
2G	.	.	.
=2	=2	=2	=2
1A	0r	1F	1f
1B-	.	1G	1d
=3	=3	=3	=3
!	!LO:TX:Y=24:t=Marchez l&agrave; dureau	!	!
1A	1F	0A	1.f
1F	1D	.	.
.	.	.	2g
=4	=4	=4	=4
1r	1F	1.D	1a
1BB-	1G	.	1d
.	.	2E	.
=5	=5	=5	=5
1AA	1A	1F	1r
!	!	!	!LO:TX:Y=38:t=Puis qu'aultrement
1GG	1r	1G	1B
=6	=6	=6	=6
1AA	0r	1E	1c
[1BB-	.	1D	[1d
=7	=7	=7	=7
2BB-]	1.D	0r	2d]
2C	.	.	2e
2.D	.	.	2.f
.	2E	.	.
4C	.	.	4e
=8	=8	=8	=8
2AA	1F	0r	2c
2.BB-	.	.	2d
.	1G	.	2c
4AA	.	.	.
[2C	.	.	[2e
=9	=9	=9	=9
4C]	1E	0r	4e]
4GG	.	.	4B
2AA	.	.	2c#i
[1BB-	1D	.	1d
=10	=10	=10	=10
2BB-]	0r	1F	1r
2.D	.	.	.
.	.	1D	[1d
4E	.	.	.
[2F	.	.	.
=11	=11	=11	=11
2F]	0r	1F	2d]
4E	.	.	2c
4D	.	.	.
1E	.	1G	2.B
.	.	.	4A
=12	=12	=12	=12
1r	1F	0A	1A
1F	1D	.	[1f
=13	=13	=13	=13
1BB-	1F	0D	2f]
.	.	.	2e
1BB-	1G	.	[1d
=14	=14	=14	=14
1AA	0A	1E	2d]
.	.	.	4c#i
.	.	.	4B
1AA	.	1E	2.c#i
.	.	.	4B
=15	=15	=15	=15
1BB-	0r	0D	1.d
2GG	.	.	.
[2D	.	.	[2f
=16	=16	=16	=16
4D]	0D	0r	4f]
4E	.	.	4g
1F	.	.	1a
4E	.	.	4g
4D	.	.	4f
=17	=17	=17	=17
2.C	1E	0r	4g
.	.	.	4f
.	.	.	4e
4BB-	.	.	4d
1AA	1E	.	2.c#i
.	.	.	4B
=18	=18	=18	=18
1r	0D	1A	1d
1D	.	1B	1r
=19	=19	=19	=19
2C	0r	1c	1a
1AA	.	.	.
.	.	1B	1b
2GG	.	.	.
=20	=20	=20	=20
2AA	1A	1A	1cc
2C	.	.	.
2D	1B	1r	1b
2E	.	.	.
=21	=21	=21	=21
2C	1c	1A	1a
4BB-	.	.	.
4AA	.	.	.
2.GG	1B	1B	1r
4FF	.	.	.
=22	=22	=22	=22
2AA	1A	1c	1a
1AA	.	.	.
.	1r	1B	1b
2GG	.	.	.
=23	=23	=23	=23
2.AA	1A	1A	1cc
4FF#i	.	.	.
1GG#i	1B	1r	1b
=24	=24	=24	=24
1AA	1c	1A	1a
[1E	1B	1G	1r
=25	=25	=25	=25
2E]	1A	1A	1a
2C	.	.	.
2D	1r	1B	2f
2E	.	.	2g
=26	=26	=26	=26
1AA	0r	1.c	2.a
.	.	.	4g
1C	.	.	1e
.	.	2B	.
=27	=27	=27	=27
1.D	1A	1A	1f
.	1G	1B-i	2e
2E	.	.	[2g
=28	=28	=28	=28
1F	1A	2.A	4g]
.	.	.	4f
.	.	.	1f
.	.	4F	.
1r	1B	1G	.
.	.	.	2e
=29	=29	=29	=29
1A	1.c	0F	1f
2F	.	.	[1a
[2D	2B	.	.
=30	=30	=30	=30
4D]	1A	0r	2a]
4E	.	.	.
2F	.	.	2f
2.BB-	1B-i	.	[1f
4C	.	.	.
=31	=31	=31	=31
1D	2.A	1r	2f]
.	.	.	2d
.	4F	.	.
1C	1G	1c	1e
=32	=32	=32	=32
1r	0F	1A	1f
1FF	.	1c	1r
=33	=33	=33	=33
1FF	1r	0A	1cc
1FF	1c	.	1a
=34	=34	=34	=34
0FF	1A	0r	1cc
.	1c	.	1a
=35	=35	=35	=35
1.FF	0A	1F	0r
.	.	1D	.
2GG	.	.	.
=36	=36	=36	=36
1AA	0r	1F	1f
1BB-	.	1G	1d
=37	=37	=37	=37
1FF	1F	0A	1.f
1r	1D	.	.
.	.	.	2g
=38	=38	=38	=38
0r	1F	1.D	1a
.	1G	.	1d
.	.	2E	.
=39	=39	=39	=39
1FF	1A	1F	1r
1BB-	1r	1G	1d
=40	=40	=40	=40
1C	0r	1E	1e
1D	.	1D	[1f
=41	=41	=41	=41
2.BB-	1.D	0r	2f]
.	.	.	2g
4AA	.	.	.
2BB-	.	.	2f
2C	2E	.	4e
.	.	.	4d
=42	=42	=42	=42
2AA	1F	0r	2c
1BB-	.	.	1d
.	1G	.	.
4AA	.	.	4c
4GG	.	.	4B
=43	=43	=43	=43
1AA	1E	0r	1c
2r	1D	.	2d
[2D	.	.	[2f
=44	=44	=44	=44
4D]	0r	1F	4f]
4E	.	.	4g
2.F	.	.	2.a
.	.	1D	.
4G	.	.	4g
[2A	.	.	[2f
=45	=45	=45	=45
2A]	0r	1F	2f]
4G	.	.	4e
4F	.	.	4d
2.E	.	1G	2.c#i
4D	.	.	4B
=46	=46	=46	=46
1D	1F	0A	1d
1F	1D	.	1r
=47	=47	=47	=47
1r	1F	0D	0d
1BB-	1G	.	.
=48	=48	=48	=48
1AA	0A	1E	1c
1AA	.	1E	1c
=49	=49	=49	=49
1.BB-	0r	0D	1.d
4AA	.	.	4c
4GG	.	.	4B
=50	=50	=50	=50
1FF	0D	0r	1A
1BB-	.	.	[1d
=51	=51	=51	=51
0AA	1E	[0Al	2d]
.	.	.	2c#i
.	1E	.	2c#i
.	.	.	2B
=52	=52	=52	=52
1r	[0Dl	0A_	[0dl
1D	.	.	.
=53	=53	=53	=53
0Dl	0D]	0A]	0d]
==	==	==	==
*-	*-	*-	*-
!!!RDF**kern: l=long note in original notation
!!!RDF**kern: i=editorial accidental
!!!ENC:	Chris Gage 03-05-2015
!!!END:	2015/03/13/
!!!EED:	Jesse Rodin
!!!EEV:	2016/02/22/
!!!ONB:	Translated from MusicXML and edited on 2016/02/22/ by Craig Sapp
!!muse2ps: C^@{COM}\n@{SMS} @{folio}^v85,85,85,150Q16
